Yaru++/apps/scalable/python.svg

<svg height="256" width="256" xmlns="http://www.w3.org/2000/svg" xmlns:xlink="http://www.w3.org/1999/xlink"><filter id="a" color-interpolation-filters="sRGB" height="1.024" width="1.024" x="-.012" y="-.012"><feGaussianBlur stdDeviation="1.14"/></filter><filter id="b" color-interpolation-filters="sRGB" height="1.096" width="1.096" x="-.048" y="-.048"><feGaussianBlur stdDeviation="4.56"/></filter><path d="m122.875 14c-27.626 0-49.875 15.88875-49.875 35.625v21.375h-21.375c-19.73625 0-35.625 22.248981-35.625 49.875v14.25c0 27.62599 15.88875 49.875 35.625 49.875h21.375v21.375c0 19.741 22.249 35.625 49.875 35.625h14.25c27.626 0 49.875-15.884 49.875-35.625v-21.375h21.375c19.74098 0 35.625-22.24901 35.625-49.875v-14.25c0-27.626019-15.88402-49.875-35.625-49.875h-21.375v-21.375c0-19.73625-22.24899-35.625-49.875-35.625zm64.125 85.5c0 .55963-.0202 1.11448-.0517 1.66595.02261-.5504.0517-1.09273.0517-1.66595zm-18.13853 26.56369c-3.20951 1.24629-6.70108 1.93631-10.36147 1.93631 0 0 4.74494-.001 10.36147-1.93631zm-67.36147 1.93631s-4.742748.00059-10.357491 1.93433c3.208373-1.24529 6.698667-1.93433 10.357491-1.93433zm-28.448312 26.83405c-.022595.5504-.051688 1.09273-.051688 1.66595 0-.55963.02018-1.11448.05169-1.66595z" filter="url(#b)" opacity=".1" stroke-width="1.939583"/><path d="m122.875 14c-27.626 0-49.875 15.88875-49.875 35.625v21.375h-21.375c-19.73625 0-35.625 22.248981-35.625 49.875v14.25c0 27.62599 15.88875 49.875 35.625 49.875h21.375v21.375c0 19.741 22.249 35.625 49.875 35.625h14.25c27.626 0 49.875-15.884 49.875-35.625v-21.375h21.375c19.74098 0 35.625-22.24901 35.625-49.875v-14.25c0-27.626019-15.88402-49.875-35.625-49.875h-21.375v-21.375c0-19.73625-22.24899-35.625-49.875-35.625zm64.125 85.5c0 .55963-.0202 1.11448-.0517 1.66595.02261-.5504.0517-1.09273.0517-1.66595zm-18.13853 26.56369c-3.20951 1.24629-6.70108 1.93631-10.36147 1.93631 0 0 4.74494-.001 10.36147-1.93631zm-67.36147 1.93631s-4.742748.00059-10.357491 1.93433c3.208373-1.24529 6.698667-1.93433 10.357491-1.93433zm-28.448312 26.83405c-.022595.5504-.051688 1.09273-.051688 1.66595 0-.55963.02018-1.11448.05169-1.66595z" filter="url(#a)" opacity=".1" stroke-width="1.939583"/><path d="m122.875 14c-27.626 0-49.875 15.88875-49.875 35.625v21.375h-21.375c-19.73625 0-35.625 22.248981-35.625 49.875v14.25c0 27.62599 15.88875 49.875 35.625 49.875h21.375v21.375c0 19.741 22.249 35.625 49.875 35.625h14.25c27.626 0 49.875-15.884 49.875-35.625v-21.375h21.375c19.74098 0 35.625-22.24901 35.625-49.875v-14.25c0-27.626019-15.88402-49.875-35.625-49.875h-21.375v-21.375c0-19.73625-22.24899-35.625-49.875-35.625zm64.125 85.5c0 .55963-.0202 1.11448-.0517 1.66595.02261-.5504.0517-1.09273.0517-1.66595zm-18.13853 26.56369c-3.20951 1.24629-6.70108 1.93631-10.36147 1.93631 0 0 4.74494-.001 10.36147-1.93631zm-67.36147 1.93631s-4.742748.00059-10.357491 1.93433c3.208373-1.24529 6.698667-1.93433 10.357491-1.93433zm-28.448312 26.83405c-.022595.5504-.051688 1.09273-.051688 1.66595 0-.55963.02018-1.11448.05169-1.66595z" opacity=".1" stroke-width="1.939583"/><g stroke-width="1.905556"><path d="m186 71.999986v28.000004c0 15.51201-12.488 28.00001-28 28.00001h-55.99999s-28.000011 0-28.000011 27.99998v49.00001c0 19.39467 21.858668 35.00001 49.000001 35.00001h14c27.14133 0 49-15.60534 49-35.00001v-21h21c19.39465 0 35-21.85867 35-48.99999v-14c0-27.141352-15.60535-49.000014-35-49.000014z" fill="#fdc92b"/><path d="m158 202.66666a9.3333335 9.3333335 0 0 1 9.33333 9.33333 9.3333335 9.3333335 0 0 1 -9.33333 9.33334 9.3333335 9.3333335 0 0 1 -9.33333-9.33334 9.3333335 9.3333335 0 0 1 9.33333-9.33333z" fill="#fff"/><path d="m123 15.999995c-27.141333 0-49.000001 15.609988-49.000001 34.999988v21.000003h-21c-19.39 0-34.999999 21.858662-34.999999 49.000014v14c0 27.14132 15.609999 48.99999 34.999999 48.99999h21v-28.00001c0-15.51198 12.488-27.99998 28.000011-27.99998h55.99998s28 0 28-28.00001v-49.000007c0-19.39-21.85866-34.999988-49-34.999988z" fill="#1a7fd4"/><path d="m102.00001 34.666646a9.3333335 9.3333335 0 0 1 9.33333 9.333335 9.3333335 9.3333335 0 0 1 -9.33333 9.333335 9.3333335 9.3333335 0 0 1 -9.333344-9.333335 9.3333335 9.3333335 0 0 1 9.333344-9.333335z" fill="#fff"/><path d="m123 16c-27.141333 0-49 15.61-49 35v2c0-19.39 21.858667-35 49-35h14c27.14134 0 49 15.61 49 35v-2c0-19.39-21.85866-35-49-35zm-70 56c-19.39 0-35 21.858648-35 49v2c0-27.141352 15.61-49 35-49h21v-2z" fill="#fff" opacity=".3"/><path d="m242 133c0 27.14132-15.60535 49-35 49h-21v2h21c19.39465 0 35-21.85868 35-49zm-168 70v2c0 19.39467 21.858667 35 49 35h14c27.14133 0 49-15.60533 49-35v-2c0 19.39467-21.85867 35-49 35h-14c-27.141333 0-49-15.60533-49-35z" opacity=".2"/><path d="m186 98c0 28.00001-28 28-28 28h-56c-15.512011 0-28 12.48802-28 28v2c0-15.51198 12.487989-28 28-28h56s28 .00001 28-28zm-168 35v2c0 27.14132 15.61 49 35 49h21v-2h-21c-19.39 0-35-21.85868-35-49z" opacity=".2"/><path d="m186 72v2h21c19.39465 0 35 21.858648 35 49v-2c0-27.141352-15.60535-49-35-49zm0 28c0 15.51201-12.488 28-28 28h-56s-28 .00002-28 28v2c0-27.99998 28-28 28-28h56c15.512 0 28-12.48799 28-28z" fill="#fff" opacity=".3"/></g></svg>

<?xml version="1.0" encoding="UTF-8" standalone="no"?>
<svg
   xmlns:dc="http://purl.org/dc/elements/1.1/"
   xmlns:cc="http://creativecommons.org/ns#"
   xmlns:rdf="http://www.w3.org/1999/02/22-rdf-syntax-ns#"
   xmlns:svg="http://www.w3.org/2000/svg"
   xmlns="http://www.w3.org/2000/svg"
   xmlns:sodipodi="http://sodipodi.sourceforge.net/DTD/sodipodi-0.dtd"
   xmlns:inkscape="http://www.inkscape.org/namespaces/inkscape"
   width="256"
   height="256"
   version="1.1"
   id="svg18"
   sodipodi:docname="python.svg"
   inkscape:version="0.92.4 (5da689c313, 2019-01-14)">
  <metadata
     id="metadata24">
    <rdf:RDF>
      <cc:Work
         rdf:about="">
        <dc:format>image/svg+xml</dc:format>
        <dc:type
           rdf:resource="http://purl.org/dc/dcmitype/StillImage" />
        <dc:title></dc:title>
      </cc:Work>
    </rdf:RDF>
  </metadata>
  <defs
     id="defs22">
    <filter
       inkscape:collect="always"
       style="color-interpolation-filters:sRGB"
       id="filter1849"
       x="-0.012"
       width="1.024"
       y="-0.012"
       height="1.024">
      <feGaussianBlur
         inkscape:collect="always"
         stdDeviation="1.14"
         id="feGaussianBlur1851" />
    </filter>
    <filter
       inkscape:collect="always"
       style="color-interpolation-filters:sRGB"
       id="filter1863"
       x="-0.048"
       width="1.096"
       y="-0.048"
       height="1.096">
      <feGaussianBlur
         inkscape:collect="always"
         stdDeviation="4.56"
         id="feGaussianBlur1865" />
    </filter>
  </defs>
  <sodipodi:namedview
     pagecolor="#ffffff"
     bordercolor="#666666"
     borderopacity="1"
     objecttolerance="10"
     gridtolerance="10"
     guidetolerance="10"
     inkscape:pageopacity="0"
     inkscape:pageshadow="2"
     inkscape:window-width="1920"
     inkscape:window-height="1016"
     id="namedview20"
     showgrid="false"
     inkscape:zoom="3.7455356"
     inkscape:cx="130"
     inkscape:cy="128"
     inkscape:window-x="0"
     inkscape:window-y="27"
     inkscape:window-maximized="1"
     inkscape:current-layer="svg18" />
  <path
     style="opacity:0.1;fill:#000000;fill-opacity:1;stroke-width:1.93958342;filter:url(#filter1863)"
     d="M 122.875,14 C 95.249,14 73,29.88875 73,49.625 V 71 H 51.625 C 31.88875,71 16,93.248981 16,120.875 v 14.25 C 16,162.75099 31.88875,185 51.625,185 H 73 v 21.375 C 73,226.116 95.249,242 122.875,242 h 14.25 C 164.751,242 187,226.116 187,206.375 V 185 h 21.375 C 228.11598,185 244,162.75099 244,135.125 v -14.25 C 244,93.248981 228.11598,71 208.375,71 H 187 V 49.625 C 187,29.88875 164.75101,14 137.125,14 Z M 187,99.5 c 0,0.55963 -0.0202,1.11448 -0.0517,1.66595 C 186.97091,100.61555 187,100.07322 187,99.5 Z m -18.13853,26.56369 C 165.65196,127.30998 162.16039,128 158.5,128 c 0,0 4.74494,-0.001 10.36147,-1.93631 z M 101.5,128 c 0,0 -4.742748,5.9e-4 -10.357491,1.93433 C 94.350882,128.68904 97.841176,128 101.5,128 Z M 73.051688,154.83405 C 73.029093,155.38445 73,155.92678 73,156.5 c 0,-0.55963 0.02018,-1.11448 0.05169,-1.66595 z"
     id="path1853"
     inkscape:connector-curvature="0" />
  <path
     inkscape:connector-curvature="0"
     id="path1847"
     d="M 122.875,14 C 95.249,14 73,29.88875 73,49.625 V 71 H 51.625 C 31.88875,71 16,93.248981 16,120.875 v 14.25 C 16,162.75099 31.88875,185 51.625,185 H 73 v 21.375 C 73,226.116 95.249,242 122.875,242 h 14.25 C 164.751,242 187,226.116 187,206.375 V 185 h 21.375 C 228.11598,185 244,162.75099 244,135.125 v -14.25 C 244,93.248981 228.11598,71 208.375,71 H 187 V 49.625 C 187,29.88875 164.75101,14 137.125,14 Z M 187,99.5 c 0,0.55963 -0.0202,1.11448 -0.0517,1.66595 C 186.97091,100.61555 187,100.07322 187,99.5 Z m -18.13853,26.56369 C 165.65196,127.30998 162.16039,128 158.5,128 c 0,0 4.74494,-0.001 10.36147,-1.93631 z M 101.5,128 c 0,0 -4.742748,5.9e-4 -10.357491,1.93433 C 94.350882,128.68904 97.841176,128 101.5,128 Z M 73.051688,154.83405 C 73.029093,155.38445 73,155.92678 73,156.5 c 0,-0.55963 0.02018,-1.11448 0.05169,-1.66595 z"
     style="opacity:0.1;fill:#000000;fill-opacity:1;stroke-width:1.93958342;filter:url(#filter1849)" />
  <path
     style="opacity:0.1;fill:#000000;fill-opacity:1;stroke-width:1.93958342"
     d="M 122.875,14 C 95.249,14 73,29.88875 73,49.625 V 71 H 51.625 C 31.88875,71 16,93.248981 16,120.875 v 14.25 C 16,162.75099 31.88875,185 51.625,185 H 73 v 21.375 C 73,226.116 95.249,242 122.875,242 h 14.25 C 164.751,242 187,226.116 187,206.375 V 185 h 21.375 C 228.11598,185 244,162.75099 244,135.125 v -14.25 C 244,93.248981 228.11598,71 208.375,71 H 187 V 49.625 C 187,29.88875 164.75101,14 137.125,14 Z M 187,99.5 c 0,0.55963 -0.0202,1.11448 -0.0517,1.66595 C 186.97091,100.61555 187,100.07322 187,99.5 Z m -18.13853,26.56369 C 165.65196,127.30998 162.16039,128 158.5,128 c 0,0 4.74494,-0.001 10.36147,-1.93631 z M 101.5,128 c 0,0 -4.742748,5.9e-4 -10.357491,1.93433 C 94.350882,128.68904 97.841176,128 101.5,128 Z M 73.051688,154.83405 C 73.029093,155.38445 73,155.92678 73,156.5 c 0,-0.55963 0.02018,-1.11448 0.05169,-1.66595 z"
     id="path1842"
     inkscape:connector-curvature="0" />
  <path
     style="fill:#fdc92b;stroke-width:1.90555561;fill-opacity:1"
     d="M 186,71.999986 V 99.99999 C 186,115.512 173.512,128 158,128 h -55.99999 c 0,0 -28.000011,0 -28.000011,27.99998 v 49.00001 C 73.999999,224.39466 95.858667,240 123,240 h 14 c 27.14133,0 49,-15.60534 49,-35.00001 v -21 h 21 c 19.39465,0 35,-21.85867 35,-48.99999 V 121 C 242,93.858648 226.39465,71.999986 207,71.999986 Z"
     id="path2"
     inkscape:connector-curvature="0" />
  <path
     style="fill:#ffffff;stroke-width:1.90555561"
     d="m 158,202.66666 a 9.3333335,9.3333335 0 0 1 9.33333,9.33333 A 9.3333335,9.3333335 0 0 1 158,221.33333 9.3333335,9.3333335 0 0 1 148.66667,211.99999 9.3333335,9.3333335 0 0 1 158,202.66666 Z"
     id="path6"
     inkscape:connector-curvature="0" />
  <path
     style="fill:#1a7fd4;stroke-width:1.90555561;fill-opacity:1"
     d="m 123,15.999995 c -27.141333,0 -49.000001,15.609988 -49.000001,34.999988 v 21.000003 h -21 C 33.609999,71.999986 18,93.858648 18,121 v 14 c 0,27.14132 15.609999,48.99999 34.999999,48.99999 h 21 V 155.99998 C 73.999999,140.488 86.487999,128 102.00001,128 h 55.99998 c 0,0 28,0 28,-28.00001 V 50.999983 c 0,-19.39 -21.85866,-34.999988 -49,-34.999988 z"
     id="path8"
     inkscape:connector-curvature="0" />
  <path
     style="fill:#ffffff;stroke-width:1.90555561"
     d="m 102.00001,34.666646 a 9.3333335,9.3333335 0 0 1 9.33333,9.333335 9.3333335,9.3333335 0 0 1 -9.33333,9.333335 9.3333335,9.3333335 0 0 1 -9.333344,-9.333335 9.3333335,9.3333335 0 0 1 9.333344,-9.333335 z"
     id="path12"
     inkscape:connector-curvature="0" />
  <path
     style="fill:#ffffff;stroke-width:1.90555561;fill-opacity:1;opacity:0.3"
     d="M 123 16 C 95.858667 16 74 31.61 74 51 L 74 53 C 74 33.61 95.858667 18 123 18 L 137 18 C 164.14134 18 186 33.61 186 53 L 186 51 C 186 31.61 164.14134 16 137 16 L 123 16 z M 53 72 C 33.61 72 18 93.858648 18 121 L 18 123 C 18 95.858648 33.61 74 53 74 L 74 74 L 74 72 L 53 72 z "
     id="path1824" />
  <path
     style="fill:#000000;stroke-width:1.90555561;fill-opacity:1;opacity:0.2"
     d="M 242 133 C 242 160.14132 226.39465 182 207 182 L 186 182 L 186 184 L 207 184 C 226.39465 184 242 162.14132 242 135 L 242 133 z M 74 203 L 74 205 C 74 224.39467 95.858667 240 123 240 L 137 240 C 164.14133 240 186 224.39467 186 205 L 186 203 C 186 222.39467 164.14133 238 137 238 L 123 238 C 95.858667 238 74 222.39467 74 203 z "
     id="path1837" />
  <path
     style="fill:#000000;stroke-width:1.90555561;fill-opacity:1;opacity:0.2"
     d="M 186 98 C 186 126.00001 158 126 158 126 L 102 126 C 86.487989 126 74 138.48802 74 154 L 74 156 C 74 140.48802 86.487989 128 102 128 L 158 128 C 158 128 186 128.00001 186 100 L 186 98 z M 18 133 L 18 135 C 18 162.14132 33.61 184 53 184 L 74 184 L 74 182 L 53 182 C 33.61 182 18 160.14132 18 133 z "
     id="path1867" />
  <path
     style="fill:#ffffff;stroke-width:1.90555561;fill-opacity:1;opacity:0.3"
     d="M 186 72 L 186 74 L 207 74 C 226.39465 74 242 95.858648 242 123 L 242 121 C 242 93.858648 226.39465 72 207 72 L 186 72 z M 186 100 C 186 115.51201 173.512 128 158 128 L 102 128 C 102 128 74 128.00002 74 156 L 74 158 C 74 130.00002 102 130 102 130 L 158 130 C 173.512 130 186 117.51201 186 102 L 186 100 z "
     id="path1872" />
</svg>
